Esim/img/bg-main.svg

<svg width="1537" height="242" viewBox="0 0 1537 242" fill="none" xmlns="http://www.w3.org/2000/svg">
<path d="M291 69C291 67.3431 292.343 66 294 66H303C304.657 66 306 67.3431 306 69V240H291V69Z" fill="#C4C4C4" fill-opacity="0.08"/>
<path d="M251 40C251 38.3431 252.343 37 254 37H263C264.657 37 266 38.3431 266 40V240H251V40Z" fill="#C4C4C4" fill-opacity="0.08"/>
<path d="M226 98C226 96.3431 227.343 95 229 95H238C239.657 95 241 96.3431 241 98V240H226V98Z" fill="#C4C4C4" fill-opacity="0.2"/>
<path d="M201 69C201 67.3431 202.343 66 204 66H213C214.657 66 216 67.3431 216 69V240H201V69Z" fill="#C4C4C4" fill-opacity="0.17"/>
<path d="M177 57C177 55.3431 178.343 54 180 54H189C190.657 54 192 55.3431 192 57V240H177V57Z" fill="#C4C4C4" fill-opacity="0.08"/>
<path d="M152 108C152 106.343 153.343 105 155 105H164C165.657 105 167 106.343 167 108V240H152V108Z" fill="#C4C4C4" fill-opacity="0.2"/>
<path d="M127 45C127 43.3431 128.343 42 130 42H139C140.657 42 142 43.3431 142 45V240H127V45Z" fill="#C4C4C4" fill-opacity="0.12"/>
<path d="M102 83C102 81.3431 103.343 80 105 80H114C115.657 80 117 81.3431 117 83V240H102V83Z" fill="#C4C4C4" fill-opacity="0.08"/>
<path d="M77 151C77 149.343 78.3431 148 80 148H89C90.6569 148 92 149.343 92 151V240H77V151Z" fill="#C4C4C4" fill-opacity="0.08"/>
<path d="M51 108C51 106.343 52.3431 105 54 105H63C64.6569 105 66 106.343 66 108V240H51V108Z" fill="#C4C4C4" fill-opacity="0.2"/>
<path d="M26 130C26 128.343 27.3431 127 29 127H38C39.6569 127 41 128.343 41 130V240H26V130Z" fill="#C4C4C4" fill-opacity="0.08"/>
<path d="M0 88C0 86.3431 1.34315 85 3 85H12C13.6569 85 15 86.3431 15 88V240H0V88Z" fill="#C4C4C4" fill-opacity="0.12"/>
<path d="M276 3C276 1.34314 277.343 0 279 0H288C289.657 0 291 1.34315 291 3V240H276V3Z" fill="#C4C4C4" fill-opacity="0.08"/>
<path d="M318 5C318 3.34314 319.343 2 321 2H330C331.657 2 333 3.34315 333 5V242H318V5Z" fill="#C4C4C4" fill-opacity="0.08"/>
<path d="M634 69C634 67.3431 635.343 66 637 66H646C647.657 66 649 67.3431 649 69V240H634V69Z" fill="#C4C4C4" fill-opacity="0.08"/>
<path d="M594 40C594 38.3431 595.343 37 597 37H606C607.657 37 609 38.3431 609 40V240H594V40Z" fill="#C4C4C4" fill-opacity="0.08"/>
<path d="M569 98C569 96.3431 570.343 95 572 95H581C582.657 95 584 96.3431 584 98V240H569V98Z" fill="#C4C4C4" fill-opacity="0.2"/>
<path d="M544 69C544 67.3431 545.343 66 547 66H556C557.657 66 559 67.3431 559 69V240H544V69Z" fill="#C4C4C4" fill-opacity="0.17"/>
<path d="M520 57C520 55.3431 521.343 54 523 54H532C533.657 54 535 55.3431 535 57V240H520V57Z" fill="#C4C4C4" fill-opacity="0.08"/>
<path d="M495 108C495 106.343 496.343 105 498 105H507C508.657 105 510 106.343 510 108V240H495V108Z" fill="#C4C4C4" fill-opacity="0.2"/>
<path d="M470 45C470 43.3431 471.343 42 473 42H482C483.657 42 485 43.3431 485 45V240H470V45Z" fill="#C4C4C4" fill-opacity="0.12"/>
<path d="M445 83C445 81.3431 446.343 80 448 80H457C458.657 80 460 81.3431 460 83V240H445V83Z" fill="#C4C4C4" fill-opacity="0.08"/>
<path d="M420 151C420 149.343 421.343 148 423 148H432C433.657 148 435 149.343 435 151V240H420V151Z" fill="#C4C4C4" fill-opacity="0.08"/>
<path d="M394 108C394 106.343 395.343 105 397 105H406C407.657 105 409 106.343 409 108V240H394V108Z" fill="#C4C4C4" fill-opacity="0.2"/>
<path d="M369 130C369 128.343 370.343 127 372 127H381C382.657 127 384 128.343 384 130V240H369V130Z" fill="#C4C4C4" fill-opacity="0.08"/>
<path d="M343 88C343 86.3431 344.343 85 346 85H355C356.657 85 358 86.3431 358 88V240H343V88Z" fill="#C4C4C4" fill-opacity="0.12"/>
<path d="M619 3C619 1.34314 620.343 0 622 0H631C632.657 0 634 1.34315 634 3V240H619V3Z" fill="#C4C4C4" fill-opacity="0.08"/>
<path d="M661 5C661 3.34314 662.343 2 664 2H673C674.657 2 676 3.34315 676 5V242H661V5Z" fill="#C4C4C4" fill-opacity="0.08"/>
<path d="M939 40C939 38.3431 940.343 37 942 37H951C952.657 37 954 38.3431 954 40V240H939V40Z" fill="#C4C4C4" fill-opacity="0.08"/>
<path d="M912 98C912 96.3431 913.343 95 915 95H924C925.657 95 927 96.3431 927 98V240H912V98Z" fill="#C4C4C4" fill-opacity="0.2"/>
<path d="M887 69C887 67.3431 888.343 66 890 66H899C900.657 66 902 67.3431 902 69V240H887V69Z" fill="#C4C4C4" fill-opacity="0.17"/>
<path d="M863 57C863 55.3431 864.343 54 866 54H875C876.657 54 878 55.3431 878 57V240H863V57Z" fill="#C4C4C4" fill-opacity="0.08"/>
<path d="M838 108C838 106.343 839.343 105 841 105H850C851.657 105 853 106.343 853 108V240H838V108Z" fill="#C4C4C4" fill-opacity="0.2"/>
<path d="M813 45C813 43.3431 814.343 42 816 42H825C826.657 42 828 43.3431 828 45V240H813V45Z" fill="#C4C4C4" fill-opacity="0.12"/>
<path d="M788 83C788 81.3431 789.343 80 791 80H800C801.657 80 803 81.3431 803 83V240H788V83Z" fill="#C4C4C4" fill-opacity="0.08"/>
<path d="M763 151C763 149.343 764.343 148 766 148H775C776.657 148 778 149.343 778 151V240H763V151Z" fill="#C4C4C4" fill-opacity="0.08"/>
<path d="M737 108C737 106.343 738.343 105 740 105H749C750.657 105 752 106.343 752 108V240H737V108Z" fill="#C4C4C4" fill-opacity="0.2"/>
<path d="M712 130C712 128.343 713.343 127 715 127H724C725.657 127 727 128.343 727 130V240H712V130Z" fill="#C4C4C4" fill-opacity="0.08"/>
<path d="M686 88C686 86.3431 687.343 85 689 85H698C699.657 85 701 86.3431 701 88V240H686V88Z" fill="#C4C4C4" fill-opacity="0.12"/>
<path d="M967 3C967 1.34314 968.343 0 970 0H979C980.657 0 982 1.34315 982 3V240H967V3Z" fill="#C4C4C4" fill-opacity="0.08"/>
<path d="M997 5C997 3.34314 998.343 2 1000 2H1009C1010.66 2 1012 3.34315 1012 5V242H997V5Z" fill="#C4C4C4" fill-opacity="0.08"/>
<path d="M1280 40C1280 38.3431 1281.34 37 1283 37H1292C1293.66 37 1295 38.3431 1295 40V240H1280V40Z" fill="#C4C4C4" fill-opacity="0.08"/>
<path d="M1255 98C1255 96.3431 1256.34 95 1258 95H1267C1268.66 95 1270 96.3431 1270 98V240H1255V98Z" fill="#C4C4C4" fill-opacity="0.2"/>
<path d="M1230 69C1230 67.3431 1231.34 66 1233 66H1242C1243.66 66 1245 67.3431 1245 69V240H1230V69Z" fill="#C4C4C4" fill-opacity="0.17"/>
<path d="M1206 57C1206 55.3431 1207.34 54 1209 54H1218C1219.66 54 1221 55.3431 1221 57V240H1206V57Z" fill="#C4C4C4" fill-opacity="0.08"/>
<path d="M1181 108C1181 106.343 1182.34 105 1184 105H1193C1194.66 105 1196 106.343 1196 108V240H1181V108Z" fill="#C4C4C4" fill-opacity="0.2"/>
<path d="M1156 45C1156 43.3431 1157.34 42 1159 42H1168C1169.66 42 1171 43.3431 1171 45V240H1156V45Z" fill="#C4C4C4" fill-opacity="0.12"/>
<path d="M1131 83C1131 81.3431 1132.34 80 1134 80H1143C1144.66 80 1146 81.3431 1146 83V240H1131V83Z" fill="#C4C4C4" fill-opacity="0.08"/>
<path d="M1106 151C1106 149.343 1107.34 148 1109 148H1118C1119.66 148 1121 149.343 1121 151V240H1106V151Z" fill="#C4C4C4" fill-opacity="0.08"/>
<path d="M1080 108C1080 106.343 1081.34 105 1083 105H1092C1093.66 105 1095 106.343 1095 108V240H1080V108Z" fill="#C4C4C4" fill-opacity="0.2"/>
<path d="M1055 130C1055 128.343 1056.34 127 1058 127H1067C1068.66 127 1070 128.343 1070 130V240H1055V130Z" fill="#C4C4C4" fill-opacity="0.08"/>
<path d="M1027 88C1027 86.3431 1028.34 85 1030 85H1039C1040.66 85 1042 86.3431 1042 88V240H1027V88Z" fill="#C4C4C4" fill-opacity="0.12"/>
<path d="M1305 3C1305 1.34314 1306.34 0 1308 0H1317C1318.66 0 1320 1.34315 1320 3V240H1305V3Z" fill="#C4C4C4" fill-opacity="0.08"/>
<path d="M1332 5C1332 3.34314 1333.34 2 1335 2H1344C1345.66 2 1347 3.34315 1347 5V242H1332V5Z" fill="#C4C4C4" fill-opacity="0.08"/>
<path d="M1509 108C1509 106.343 1510.34 105 1512 105H1519C1520.66 105 1522 106.343 1522 108V240H1509V108Z" fill="#C4C4C4" fill-opacity="0.2"/>
<path d="M1484 45C1484 43.3431 1485.34 42 1487 42H1496C1497.66 42 1499 43.3431 1499 45V240H1484V45Z" fill="#C4C4C4" fill-opacity="0.12"/>
<path d="M1532 44.5C1532 43.1193 1533.12 42 1534.5 42C1535.88 42 1537 43.1193 1537 44.5V240H1532V44.5Z" fill="#C4C4C4" fill-opacity="0.12"/>
<path d="M1459 83C1459 81.3431 1460.34 80 1462 80H1471C1472.66 80 1474 81.3431 1474 83V240H1459V83Z" fill="#C4C4C4" fill-opacity="0.08"/>
<path d="M1434 151C1434 149.343 1435.34 148 1437 148H1446C1447.66 148 1449 149.343 1449 151V240H1434V151Z" fill="#C4C4C4" fill-opacity="0.08"/>
<path d="M1408 108C1408 106.343 1409.34 105 1411 105H1420C1421.66 105 1423 106.343 1423 108V240H1408V108Z" fill="#C4C4C4" fill-opacity="0.2"/>
<path d="M1383 130C1383 128.343 1384.34 127 1386 127H1395C1396.66 127 1398 128.343 1398 130V240H1383V130Z" fill="#C4C4C4" fill-opacity="0.08"/>
<path d="M1357 88C1357 86.3431 1358.34 85 1360 85H1369C1370.66 85 1372 86.3431 1372 88V240H1357V88Z" fill="#C4C4C4" fill-opacity="0.12"/>
</svg>

<svg width="1537" height="242" fill="none" xmlns="http://www.w3.org/2000/svg"><path d="M291 69a3 3 0 013-3h9a3 3 0 013 3v171h-15V69zM251 40a3 3 0 013-3h9a3 3 0 013 3v200h-15V40z" fill="#C4C4C4" fill-opacity=".08"/><path d="M226 98a3 3 0 013-3h9a3 3 0 013 3v142h-15V98z" fill="#C4C4C4" fill-opacity=".2"/><path d="M201 69a3 3 0 013-3h9a3 3 0 013 3v171h-15V69z" fill="#C4C4C4" fill-opacity=".17"/><path d="M177 57a3 3 0 013-3h9a3 3 0 013 3v183h-15V57z" fill="#C4C4C4" fill-opacity=".08"/><path d="M152 108a3 3 0 013-3h9a3 3 0 013 3v132h-15V108z" fill="#C4C4C4" fill-opacity=".2"/><path d="M127 45a3 3 0 013-3h9a3 3 0 013 3v195h-15V45z" fill="#C4C4C4" fill-opacity=".12"/><path d="M102 83a3 3 0 013-3h9a3 3 0 013 3v157h-15V83zM77 151a3 3 0 013-3h9a3 3 0 013 3v89H77v-89z" fill="#C4C4C4" fill-opacity=".08"/><path d="M51 108a3 3 0 013-3h9a3 3 0 013 3v132H51V108z" fill="#C4C4C4" fill-opacity=".2"/><path d="M26 130a3 3 0 013-3h9a3 3 0 013 3v110H26V130z" fill="#C4C4C4" fill-opacity=".08"/><path d="M0 88a3 3 0 013-3h9a3 3 0 013 3v152H0V88z" fill="#C4C4C4" fill-opacity=".12"/><path d="M276 3a3 3 0 013-3h9a3 3 0 013 3v237h-15V3zM318 5a3 3 0 013-3h9a3 3 0 013 3v237h-15V5zM634 69a3 3 0 013-3h9a3 3 0 013 3v171h-15V69zM594 40a3 3 0 013-3h9a3 3 0 013 3v200h-15V40z" fill="#C4C4C4" fill-opacity=".08"/><path d="M569 98a3 3 0 013-3h9a3 3 0 013 3v142h-15V98z" fill="#C4C4C4" fill-opacity=".2"/><path d="M544 69a3 3 0 013-3h9a3 3 0 013 3v171h-15V69z" fill="#C4C4C4" fill-opacity=".17"/><path d="M520 57a3 3 0 013-3h9a3 3 0 013 3v183h-15V57z" fill="#C4C4C4" fill-opacity=".08"/><path d="M495 108a3 3 0 013-3h9a3 3 0 013 3v132h-15V108z" fill="#C4C4C4" fill-opacity=".2"/><path d="M470 45a3 3 0 013-3h9a3 3 0 013 3v195h-15V45z" fill="#C4C4C4" fill-opacity=".12"/><path d="M445 83a3 3 0 013-3h9a3 3 0 013 3v157h-15V83zM420 151a3 3 0 013-3h9a3 3 0 013 3v89h-15v-89z" fill="#C4C4C4" fill-opacity=".08"/><path d="M394 108a3 3 0 013-3h9a3 3 0 013 3v132h-15V108z" fill="#C4C4C4" fill-opacity=".2"/><path d="M369 130a3 3 0 013-3h9a3 3 0 013 3v110h-15V130z" fill="#C4C4C4" fill-opacity=".08"/><path d="M343 88a3 3 0 013-3h9a3 3 0 013 3v152h-15V88z" fill="#C4C4C4" fill-opacity=".12"/><path d="M619 3a3 3 0 013-3h9a3 3 0 013 3v237h-15V3zM661 5a3 3 0 013-3h9a3 3 0 013 3v237h-15V5zM939 40a3 3 0 013-3h9a3 3 0 013 3v200h-15V40z" fill="#C4C4C4" fill-opacity=".08"/><path d="M912 98a3 3 0 013-3h9a3 3 0 013 3v142h-15V98z" fill="#C4C4C4" fill-opacity=".2"/><path d="M887 69a3 3 0 013-3h9a3 3 0 013 3v171h-15V69z" fill="#C4C4C4" fill-opacity=".17"/><path d="M863 57a3 3 0 013-3h9a3 3 0 013 3v183h-15V57z" fill="#C4C4C4" fill-opacity=".08"/><path d="M838 108a3 3 0 013-3h9a3 3 0 013 3v132h-15V108z" fill="#C4C4C4" fill-opacity=".2"/><path d="M813 45a3 3 0 013-3h9a3 3 0 013 3v195h-15V45z" fill="#C4C4C4" fill-opacity=".12"/><path d="M788 83a3 3 0 013-3h9a3 3 0 013 3v157h-15V83zM763 151a3 3 0 013-3h9a3 3 0 013 3v89h-15v-89z" fill="#C4C4C4" fill-opacity=".08"/><path d="M737 108a3 3 0 013-3h9a3 3 0 013 3v132h-15V108z" fill="#C4C4C4" fill-opacity=".2"/><path d="M712 130a3 3 0 013-3h9a3 3 0 013 3v110h-15V130z" fill="#C4C4C4" fill-opacity=".08"/><path d="M686 88a3 3 0 013-3h9a3 3 0 013 3v152h-15V88z" fill="#C4C4C4" fill-opacity=".12"/><path d="M967 3a3 3 0 013-3h9a3 3 0 013 3v237h-15V3zM997 5a3 3 0 013-3h9c1.66 0 3 1.343 3 3v237h-15V5zM1280 40c0-1.657 1.34-3 3-3h9c1.66 0 3 1.343 3 3v200h-15V40z" fill="#C4C4C4" fill-opacity=".08"/><path d="M1255 98c0-1.657 1.34-3 3-3h9c1.66 0 3 1.343 3 3v142h-15V98z" fill="#C4C4C4" fill-opacity=".2"/><path d="M1230 69c0-1.657 1.34-3 3-3h9c1.66 0 3 1.343 3 3v171h-15V69z" fill="#C4C4C4" fill-opacity=".17"/><path d="M1206 57c0-1.657 1.34-3 3-3h9c1.66 0 3 1.343 3 3v183h-15V57z" fill="#C4C4C4" fill-opacity=".08"/><path d="M1181 108c0-1.657 1.34-3 3-3h9c1.66 0 3 1.343 3 3v132h-15V108z" fill="#C4C4C4" fill-opacity=".2"/><path d="M1156 45c0-1.657 1.34-3 3-3h9c1.66 0 3 1.343 3 3v195h-15V45z" fill="#C4C4C4" fill-opacity=".12"/><path d="M1131 83c0-1.657 1.34-3 3-3h9c1.66 0 3 1.343 3 3v157h-15V83zM1106 151c0-1.657 1.34-3 3-3h9c1.66 0 3 1.343 3 3v89h-15v-89z" fill="#C4C4C4" fill-opacity=".08"/><path d="M1080 108c0-1.657 1.34-3 3-3h9c1.66 0 3 1.343 3 3v132h-15V108z" fill="#C4C4C4" fill-opacity=".2"/><path d="M1055 130c0-1.657 1.34-3 3-3h9c1.66 0 3 1.343 3 3v110h-15V130z" fill="#C4C4C4" fill-opacity=".08"/><path d="M1027 88c0-1.657 1.34-3 3-3h9c1.66 0 3 1.343 3 3v152h-15V88z" fill="#C4C4C4" fill-opacity=".12"/><path d="M1305 3c0-1.657 1.34-3 3-3h9c1.66 0 3 1.343 3 3v237h-15V3zM1332 5c0-1.657 1.34-3 3-3h9c1.66 0 3 1.343 3 3v237h-15V5z" fill="#C4C4C4" fill-opacity=".08"/><path d="M1509 108c0-1.657 1.34-3 3-3h7c1.66 0 3 1.343 3 3v132h-13V108z" fill="#C4C4C4" fill-opacity=".2"/><path d="M1484 45c0-1.657 1.34-3 3-3h9c1.66 0 3 1.343 3 3v195h-15V45zM1532 44.5a2.5 2.5 0 015 0V240h-5V44.5z" fill="#C4C4C4" fill-opacity=".12"/><path d="M1459 83c0-1.657 1.34-3 3-3h9c1.66 0 3 1.343 3 3v157h-15V83zM1434 151c0-1.657 1.34-3 3-3h9c1.66 0 3 1.343 3 3v89h-15v-89z" fill="#C4C4C4" fill-opacity=".08"/><path d="M1408 108c0-1.657 1.34-3 3-3h9c1.66 0 3 1.343 3 3v132h-15V108z" fill="#C4C4C4" fill-opacity=".2"/><path d="M1383 130c0-1.657 1.34-3 3-3h9c1.66 0 3 1.343 3 3v110h-15V130z" fill="#C4C4C4" fill-opacity=".08"/><path d="M1357 88c0-1.657 1.34-3 3-3h9c1.66 0 3 1.343 3 3v152h-15V88z" fill="#C4C4C4" fill-opacity=".12"/></svg>
